gtk-icons/Papirus-Dark-GTK/22x22/actions/kstars_deepsky.svg

<?xml version="1.0" encoding="UTF-8" standalone="no"?>
<!-- Created with Inkscape (http://www.inkscape.org/) -->
<svg id="svg2" xmlns:rdf="http://www.w3.org/1999/02/22-rdf-syntax-ns#" xmlns="http://www.w3.org/2000/svg" height="22" viewBox="0 0 22 22" width="22" version="1.1" xmlns:cc="http://creativecommons.org/ns#" xmlns:dc="http://purl.org/dc/elements/1.1/">
 <defs id="defs4">
  <style id="current-color-scheme" type="text/css">.ColorScheme-Text {
        color:#4d4d4d;
      }
      .ColorScheme-Background {
        color:#eff0f1;
      }
      .ColorScheme-Highlight {
        color:#3daee9;
      }
      .ColorScheme-ViewText {
        color:#31363b;
      }
      .ColorScheme-ViewBackground {
        color:#fcfcfc;
      }
      .ColorScheme-ViewHover {
        color:#93cee9;
      }
      .ColorScheme-ViewFocus{
        color:#3daee9;
      }
      .ColorScheme-ButtonText {
        color:#31363b;
      }
      .ColorScheme-ButtonBackground {
        color:#eff0f1;
      }
      .ColorScheme-ButtonHover {
        color:#93cee9;
      }
      .ColorScheme-ButtonFocus{
        color:#3daee9;
      }</style>
 </defs>
 <metadata id="metadata7">
  <rdf:RDF>
   <cc:Work rdf:about="">
    <dc:format>image/svg+xml</dc:format>
    <dc:type rdf:resource="http://purl.org/dc/dcmitype/StillImage"/>
    <dc:title/>
   </cc:Work>
  </rdf:RDF>
 </metadata>
 <g id="layer1" transform="translate(0 -1030.4)">
  <path id="path4176-90" opacity=".72" d="m9.5 3a0.5 0.5 0 0 0 -0.5 0.5 0.5 0.5 0 0 0 0.5 0.5 0.5 0.5 0 0 0 0.5 -0.5 0.5 0.5 0 0 0 -0.5 -0.5zm3 0a0.5 0.5 0 0 0 -0.5 0.5 0.5 0.5 0 0 0 0.5 0.5 0.5 0.5 0 0 0 0.5 -0.5 0.5 0.5 0 0 0 -0.5 -0.5zm-5 1a0.5 0.5 0 0 0 -0.5 0.5 0.5 0.5 0 0 0 0.5 0.5 0.5 0.5 0 0 0 0.5 -0.5 0.5 0.5 0 0 0 -0.5 -0.5zm7 0a0.5 0.5 0 0 0 -0.5 0.5 0.5 0.5 0 0 0 0.5 0.5 0.5 0.5 0 0 0 0.5 -0.5 0.5 0.5 0 0 0 -0.5 -0.5zm-9 1a0.5 0.5 0 0 0 -0.5 0.5 0.5 0.5 0 0 0 0.5 0.5 0.5 0.5 0 0 0 0.5 -0.5 0.5 0.5 0 0 0 -0.5 -0.5zm11 0a0.5 0.5 0 0 0 -0.5 0.5 0.5 0.5 0 0 0 0.5 0.5 0.5 0.5 0 0 0 0.5 -0.5 0.5 0.5 0 0 0 -0.5 -0.5zm-12 2a0.5 0.5 0 0 0 -0.5 0.5 0.5 0.5 0 0 0 0.5 0.5 0.5 0.5 0 0 0 0.5 -0.5 0.5 0.5 0 0 0 -0.5 -0.5zm13 0a0.5 0.5 0 0 0 -0.5 0.5 0.5 0.5 0 0 0 0.5 0.5 0.5 0.5 0 0 0 0.5 -0.5 0.5 0.5 0 0 0 -0.5 -0.5zm-14 2a0.5 0.5 0 0 0 -0.5 0.5 0.5 0.5 0 0 0 0.5 0.5 0.5 0.5 0 0 0 0.5 -0.5 0.5 0.5 0 0 0 -0.5 -0.5zm15 0a0.5 0.5 0 0 0 -0.5 0.5 0.5 0.5 0 0 0 0.5 0.5 0.5 0.5 0 0 0 0.5 -0.5 0.5 0.5 0 0 0 -0.5 -0.5zm-15 3a0.5 0.5 0 0 0 -0.5 0.5 0.5 0.5 0 0 0 0.5 0.5 0.5 0.5 0 0 0 0.5 -0.5 0.5 0.5 0 0 0 -0.5 -0.5zm15 0a0.5 0.5 0 0 0 -0.5 0.5 0.5 0.5 0 0 0 0.5 0.5 0.5 0.5 0 0 0 0.5 -0.5 0.5 0.5 0 0 0 -0.5 -0.5zm-14 2a0.5 0.5 0 0 0 -0.5 0.5 0.5 0.5 0 0 0 0.5 0.5 0.5 0.5 0 0 0 0.5 -0.5 0.5 0.5 0 0 0 -0.5 -0.5zm13 0a0.5 0.5 0 0 0 -0.5 0.5 0.5 0.5 0 0 0 0.5 0.5 0.5 0.5 0 0 0 0.5 -0.5 0.5 0.5 0 0 0 -0.5 -0.5zm-12 2a0.5 0.5 0 0 0 -0.5 0.5 0.5 0.5 0 0 0 0.5 0.5 0.5 0.5 0 0 0 0.5 -0.5 0.5 0.5 0 0 0 -0.5 -0.5zm11 0a0.5 0.5 0 0 0 -0.5 0.5 0.5 0.5 0 0 0 0.5 0.5 0.5 0.5 0 0 0 0.5 -0.5 0.5 0.5 0 0 0 -0.5 -0.5zm-9 1a0.5 0.5 0 0 0 -0.5 0.5 0.5 0.5 0 0 0 0.5 0.5 0.5 0.5 0 0 0 0.5 -0.5 0.5 0.5 0 0 0 -0.5 -0.5zm7 0a0.5 0.5 0 0 0 -0.5 0.5 0.5 0.5 0 0 0 0.5 0.5 0.5 0.5 0 0 0 0.5 -0.5 0.5 0.5 0 0 0 -0.5 -0.5zm-5 1a0.5 0.5 0 0 0 -0.5 0.5 0.5 0.5 0 0 0 0.5 0.5 0.5 0.5 0 0 0 0.5 -0.5 0.5 0.5 0 0 0 -0.5 -0.5zm3 0a0.5 0.5 0 0 0 -0.5 0.5 0.5 0.5 0 0 0 0.5 0.5 0.5 0.5 0 0 0 0.5 -0.5 0.5 0.5 0 0 0 -0.5 -0.5z" transform="translate(0 1030.4)" fill="#fff"/>
 </g>
</svg>

<?xml version="1.0" encoding="UTF-8" standalone="no"?>
<!-- Created with Inkscape (http://www.inkscape.org/) -->

<svg
   xmlns:dc="http://purl.org/dc/elements/1.1/"
   xmlns:cc="http://creativecommons.org/ns#"
   xmlns:rdf="http://www.w3.org/1999/02/22-rdf-syntax-ns#"
   xmlns:svg="http://www.w3.org/2000/svg"
   xmlns="http://www.w3.org/2000/svg"
   xmlns:sodipodi="http://sodipodi.sourceforge.net/DTD/sodipodi-0.dtd"
   xmlns:inkscape="http://www.inkscape.org/namespaces/inkscape"
   width="22"
   height="22"
   id="svg2"
   version="1.1"
   inkscape:version="0.91 r13725"
   viewBox="0 0 22 22"
   sodipodi:docname="kstars_deepsky.svg">
  <defs
     id="defs4">
    <style
       type="text/css"
       id="current-color-scheme">
      .ColorScheme-Text {
        color:#4d4d4d;
      }
      .ColorScheme-Background {
        color:#eff0f1;
      }
      .ColorScheme-Highlight {
        color:#3daee9;
      }
      .ColorScheme-ViewText {
        color:#31363b;
      }
      .ColorScheme-ViewBackground {
        color:#fcfcfc;
      }
      .ColorScheme-ViewHover {
        color:#93cee9;
      }
      .ColorScheme-ViewFocus{
        color:#3daee9;
      }
      .ColorScheme-ButtonText {
        color:#31363b;
      }
      .ColorScheme-ButtonBackground {
        color:#eff0f1;
      }
      .ColorScheme-ButtonHover {
        color:#93cee9;
      }
      .ColorScheme-ButtonFocus{
        color:#3daee9;
      }
      </style>
    <clipPath
       clipPathUnits="userSpaceOnUse"
       id="clipPath3979">
      <rect
         style="fill:#ffffff"
         id="rect3981"
         width="64"
         height="64"
         x="0.090115756"
         y="-0.090114839"
         clip-path="none" />
    </clipPath>
    <clipPath
       clipPathUnits="userSpaceOnUse"
       id="clipPath3975">
      <rect
         style="fill:#ffffff"
         id="rect3977"
         width="64"
         height="64"
         x="0.090115756"
         y="-0.090114839"
         clip-path="none" />
    </clipPath>
    <clipPath
       clipPathUnits="userSpaceOnUse"
       id="clipPath3971">
      <rect
         style="fill:#ffffff"
         id="rect3973"
         width="64"
         height="64"
         x="0.090115756"
         y="-0.090114839"
         clip-path="none" />
    </clipPath>
    <clipPath
       clipPathUnits="userSpaceOnUse"
       id="clipPath3967">
      <rect
         style="fill:#ffffff"
         id="rect3969"
         width="64"
         height="64"
         x="0.090115756"
         y="-0.090114839"
         clip-path="none" />
    </clipPath>
    <clipPath
       clipPathUnits="userSpaceOnUse"
       id="clipPath3963">
      <rect
         style="fill:#ffffff"
         id="rect3965"
         width="64"
         height="64"
         x="0.090115756"
         y="-0.090114839"
         clip-path="none" />
    </clipPath>
    <clipPath
       clipPathUnits="userSpaceOnUse"
       id="clipPath3959">
      <rect
         style="fill:#ffffff"
         id="rect3961"
         width="64"
         height="64"
         x="0.090115756"
         y="-0.090114839"
         clip-path="none" />
    </clipPath>
    <linearGradient
       id="linearGradient3764">
      <stop
         style="stop-color:#ffffb7;stop-opacity:1;"
         offset="0"
         id="stop3766" />
      <stop
         id="stop3772"
         offset="0.5"
         style="stop-color:#f4e55b;stop-opacity:1;" />
      <stop
         style="stop-color:#ea9a00;stop-opacity:1;"
         offset="1"
         id="stop3768" />
    </linearGradient>
  </defs>
  <sodipodi:namedview
     id="base"
     pagecolor="#ffffff"
     bordercolor="#666666"
     borderopacity="1.0"
     inkscape:pageopacity="0.0"
     inkscape:pageshadow="2"
     inkscape:zoom="15.968669"
     inkscape:cx="-3.5850011"
     inkscape:cy="7.0180313"
     inkscape:document-units="px"
     inkscape:current-layer="layer1"
     showgrid="false"
     inkscape:showpageshadow="false"
     units="px"
     inkscape:window-width="1600"
     inkscape:window-height="847"
     inkscape:window-x="0"
     inkscape:window-y="30"
     inkscape:window-maximized="1"
     inkscape:object-nodes="true"
     inkscape:snap-bbox="true"
     showguides="false">
    <inkscape:grid
       type="xygrid"
       id="grid4120" />
    <sodipodi:guide
       position="2,20.000017"
       orientation="18,0"
       id="guide4126" />
    <sodipodi:guide
       position="2,2.0000174"
       orientation="0,18"
       id="guide4128" />
    <sodipodi:guide
       position="20,2.0000174"
       orientation="-18,0"
       id="guide4130" />
    <sodipodi:guide
       position="20,20.000017"
       orientation="0,-18"
       id="guide4132" />
    <sodipodi:guide
       position="3,19.000017"
       orientation="16,0"
       id="guide4134" />
    <sodipodi:guide
       position="3,3.0000174"
       orientation="0,16"
       id="guide4136" />
    <sodipodi:guide
       position="19,3.0000174"
       orientation="-16,0"
       id="guide4138" />
    <sodipodi:guide
       position="19,19.000017"
       orientation="0,-16"
       id="guide4140" />
    <sodipodi:guide
       position="19,13.000017"
       orientation="-6,0"
       id="guide4199" />
    <sodipodi:guide
       position="19,19.000017"
       orientation="0,-6.0000172"
       id="guide4201" />
  </sodipodi:namedview>
  <metadata
     id="metadata7">
    <rdf:RDF>
      <cc:Work
         rdf:about="">
        <dc:format>image/svg+xml</dc:format>
        <dc:type
           rdf:resource="http://purl.org/dc/dcmitype/StillImage" />
        <dc:title></dc:title>
      </cc:Work>
    </rdf:RDF>
  </metadata>
  <g
     inkscape:label="Capa 1"
     inkscape:groupmode="layer"
     id="layer1"
     transform="translate(0,-1030.3622)">
    <path
       style="fill:#ffffff;fill-opacity:1;stroke:none;opacity:0.72"
       d="M 9.5 3 A 0.5 0.5 0 0 0 9 3.5 A 0.5 0.5 0 0 0 9.5 4 A 0.5 0.5 0 0 0 10 3.5 A 0.5 0.5 0 0 0 9.5 3 z M 12.5 3 A 0.5 0.5 0 0 0 12 3.5 A 0.5 0.5 0 0 0 12.5 4 A 0.5 0.5 0 0 0 13 3.5 A 0.5 0.5 0 0 0 12.5 3 z M 7.5 4 A 0.5 0.5 0 0 0 7 4.5 A 0.5 0.5 0 0 0 7.5 5 A 0.5 0.5 0 0 0 8 4.5 A 0.5 0.5 0 0 0 7.5 4 z M 14.5 4 A 0.5 0.5 0 0 0 14 4.5 A 0.5 0.5 0 0 0 14.5 5 A 0.5 0.5 0 0 0 15 4.5 A 0.5 0.5 0 0 0 14.5 4 z M 5.5 5 A 0.5 0.5 0 0 0 5 5.5 A 0.5 0.5 0 0 0 5.5 6 A 0.5 0.5 0 0 0 6 5.5 A 0.5 0.5 0 0 0 5.5 5 z M 16.5 5 A 0.5 0.5 0 0 0 16 5.5 A 0.5 0.5 0 0 0 16.5 6 A 0.5 0.5 0 0 0 17 5.5 A 0.5 0.5 0 0 0 16.5 5 z M 4.5 7 A 0.5 0.5 0 0 0 4 7.5 A 0.5 0.5 0 0 0 4.5 8 A 0.5 0.5 0 0 0 5 7.5 A 0.5 0.5 0 0 0 4.5 7 z M 17.5 7 A 0.5 0.5 0 0 0 17 7.5 A 0.5 0.5 0 0 0 17.5 8 A 0.5 0.5 0 0 0 18 7.5 A 0.5 0.5 0 0 0 17.5 7 z M 3.5 9 A 0.5 0.5 0 0 0 3 9.5 A 0.5 0.5 0 0 0 3.5 10 A 0.5 0.5 0 0 0 4 9.5 A 0.5 0.5 0 0 0 3.5 9 z M 18.5 9 A 0.5 0.5 0 0 0 18 9.5 A 0.5 0.5 0 0 0 18.5 10 A 0.5 0.5 0 0 0 19 9.5 A 0.5 0.5 0 0 0 18.5 9 z M 3.5 12 A 0.5 0.5 0 0 0 3 12.5 A 0.5 0.5 0 0 0 3.5 13 A 0.5 0.5 0 0 0 4 12.5 A 0.5 0.5 0 0 0 3.5 12 z M 18.5 12 A 0.5 0.5 0 0 0 18 12.5 A 0.5 0.5 0 0 0 18.5 13 A 0.5 0.5 0 0 0 19 12.5 A 0.5 0.5 0 0 0 18.5 12 z M 4.5 14 A 0.5 0.5 0 0 0 4 14.5 A 0.5 0.5 0 0 0 4.5 15 A 0.5 0.5 0 0 0 5 14.5 A 0.5 0.5 0 0 0 4.5 14 z M 17.5 14 A 0.5 0.5 0 0 0 17 14.5 A 0.5 0.5 0 0 0 17.5 15 A 0.5 0.5 0 0 0 18 14.5 A 0.5 0.5 0 0 0 17.5 14 z M 5.5 16 A 0.5 0.5 0 0 0 5 16.5 A 0.5 0.5 0 0 0 5.5 17 A 0.5 0.5 0 0 0 6 16.5 A 0.5 0.5 0 0 0 5.5 16 z M 16.5 16 A 0.5 0.5 0 0 0 16 16.5 A 0.5 0.5 0 0 0 16.5 17 A 0.5 0.5 0 0 0 17 16.5 A 0.5 0.5 0 0 0 16.5 16 z M 7.5 17 A 0.5 0.5 0 0 0 7 17.5 A 0.5 0.5 0 0 0 7.5 18 A 0.5 0.5 0 0 0 8 17.5 A 0.5 0.5 0 0 0 7.5 17 z M 14.5 17 A 0.5 0.5 0 0 0 14 17.5 A 0.5 0.5 0 0 0 14.5 18 A 0.5 0.5 0 0 0 15 17.5 A 0.5 0.5 0 0 0 14.5 17 z M 9.5 18 A 0.5 0.5 0 0 0 9 18.5 A 0.5 0.5 0 0 0 9.5 19 A 0.5 0.5 0 0 0 10 18.5 A 0.5 0.5 0 0 0 9.5 18 z M 12.5 18 A 0.5 0.5 0 0 0 12 18.5 A 0.5 0.5 0 0 0 12.5 19 A 0.5 0.5 0 0 0 13 18.5 A 0.5 0.5 0 0 0 12.5 18 z "
       transform="translate(0,1030.3622)"
       id="path4176-90" />
  </g>
</svg>
